z_dist/img/photos/bg/exchange-rate-main.svg

<svg width="1440" height="910" fill="none" xmlns="http://www.w3.org/2000/svg"><g clip-path="url(#clip0_1539_70903)"><path d="M1440 0H0v910h1440V0z" fill="#2E2E2E"/><path d="M0 248l160 168 160-199 160 83 160 94 160-76 160-53 160 154 160-161 160 47v606H0V248z" fill="#7170C9"/><path d="M0 422l160 53 160-72 160 82 160-144 160 161 160-101 160-51 169.5 74.5L1440 356v555H0V422z" fill="#8F8BD4"/><path d="M0 443l160 67 160-81 160 173 160-40 160-34 160-61 160-40 160 94 160-49v439H0V443z" fill="#ACA7E0"/><path d="M0 629l160-1 160 25 160-129 160 148 160 12 160-128 160 36 160-67 160 34v352H0V629z" fill="#C8C3EA"/><path d="M0 642l160 69 160 35 160-84 160-27 160 49 160 67 160-9 160-57 160 11v215H0V642z" fill="#E4E1F5"/><path d="M0 768l160 64 160-5 160-38 160-23 160 71 160 6 160-68 160-3 160 62v77H0V768z" fill="#fff"/></g><defs><clipPath id="clip0_1539_70903"><path fill="#fff" d="M0 0h1440v910H0z"/></clipPath></defs></svg>

<svg width="1440" height="910" viewBox="0 0 1440 910" fill="none" xmlns="http://www.w3.org/2000/svg">
<g clip-path="url(#clip0_1539_70903)">
<path d="M1440 0H0V910H1440V0Z" fill="#2E2E2E"/>
<path d="M0 248L160 416L320 217L480 300L640 394L800 318L960 265L1120 419L1280 258L1440 305V911H1280H1120H960H800H640H480H320H160H0V248Z" fill="#7170C9"/>
<path d="M0 422L160 475L320 403L480 485L640 341L800 502L960 401L1120 350L1289.5 424.5L1440 356V911H1280H1120H960H800H640H480H320H160H0V422Z" fill="#8F8BD4"/>
<path d="M0 443L160 510L320 429L480 602L640 562L800 528L960 467L1120 427L1280 521L1440 472V911H1280H1120H960H800H640H480H320H160H0V443Z" fill="#ACA7E0"/>
<path d="M0 629L160 628L320 653L480 524L640 672L800 684L960 556L1120 592L1280 525L1440 559V911H1280H1120H960H800H640H480H320H160H0V629Z" fill="#C8C3EA"/>
<path d="M0 642L160 711L320 746L480 662L640 635L800 684L960 751L1120 742L1280 685L1440 696V911H1280H1120H960H800H640H480H320H160H0V642Z" fill="#E4E1F5"/>
<path d="M0 768L160 832L320 827L480 789L640 766L800 837L960 843L1120 775L1280 772L1440 834V911H1280H1120H960H800H640H480H320H160H0V768Z" fill="white"/>
</g>
<defs>
<clipPath id="clip0_1539_70903">
<rect width="1440" height="910" fill="white"/>
</clipPath>
</defs>
</svg>
